X:1
T:Las si ie nay aultre
T:Las si ie nay aultre
T:Jacobus Clemens non Papa
C:Jacobus Clemens non Papa
%%score [ 1 [ 2 3 ] 4 ]
L:1/8
Q:1/4=90
M:2/2
K:F
V:1 treble nm="Superius" snm="S"
V:2 treble-8 nm="Tenor 1" snm="T 1"
V:3 treble-8 nm="Tenor 2" snm="T 2"
V:4 bass nm="Bassus" snm="B"
V:1
 G4 G2 G2 | D2 G2 F2 G2 | A8 | z2 F2 G2 A2 | F2 A2 AB cA | B2 A3 G G2- |"^#" G2 F2 G4 | %7
w: Las, si je|n'ay aul- tre se-|cours|d'u- ne da-|me que j'ay- * * *||* me fort,|
 z2 G2 G2 G2 | D2 G2 F2 G2 | A4 z2 A2 | A2 A2 B2 AG | FEDC B,2 B2 | A2 G4 F2 | G4 z2 F2 | %14
w: je souf- fri-|ray main- tes dou-|leurs, si|d'el- le n'ay aul- *|tre _ _ _ _ _|_ _ con-|fort, de|
 F2 G2 A2 B2 | G2 A2 B2 F2 | G2 A2 BA GF | E2 E2 D2 F2 | _E3 F G2 F2- | F2 E2 F4- | F2 F2 GA BG | %21
w: la ser- vir fais|mon ef- fort pour|ac- que- rir _ _ _|_ sa bon- ne|gra- * * *|* * ce,|_ [sa bon- * * *|
 AB c4 B2- | B2 A2 B2 F2 | B3 A G4- | G2 F2 _E2 E2 | D4 z2 G2 | B2 B2 A2 F2 | GA BG AG FE | %28
w: ne _ gra- ce,|_ s'el- le ne|m'ay- me, el|_ _ le'a grant|tort, car|d'aul- tre'ay- mer je|ne _ pour _ chas- * * *|
 D2 D2 F2 F2 | GA B4 A2- | A2 G4 F2 | G2 G2 B2 B2 | A2 F2 GA BG | AG FE D2 D2 | F2 F2 G2 B2- | %35
w: se, car d'aul- tre'ay-|mer- je ne pour|_ chas- *|se, car d'aul- tre'ay-|mer je ne _ pour _|chas- * * * se, car|d'aul- tre'ay- mer je|
 BA A4 G2- |"^#" G2 F2 G4- | G8 |] %38
w: _ ne pour- chas-|* * se.|_|
V:2
 z8 | d4 d2 d2 | f2 f2 e2 e2 | d4 z2 A2 | B2 c2 d2 c2 | f3 e d2 c2 | d4 B2 c2 | e2 e2 d4 | %8
w: |Las, si je|n'ay aul- tre se-|cours d'u-|ne da- me que|j'ay- * * *|me fort, je|souf- fri- ray|
 z2 d2 d2 d2 | f2 f2 e2 e2 | d2 d2 f2 e2 | d4 z2 B2 |"^b" e4 d4 | B2 z B B2 c2 | d6 d2 | %15
w: main- tes dou-|leurs, si d'el- le|n'ay aul- tre con-|fort, aul-|tre con-|fort, de la ser-|vir fais|
"^b" e2 c2 B4 | z2 F4 G2- | G2 A4 B2- | B2 c2 d2 d2 | c2 B4 A2 | G2 F2 Bc de | f2 e2 g4 | f4 d4 | %23
w: mon ef- fort|pour ac-|* que- rir|_ sa bon- ne|gra- * *|ce, sa bon- * * *|* ne gra-|* ce,|
 z2 _e2 e2 e2 | d3 c B2 c2 | A2 A2 B4 | z2 B2 c2 d2 | Bc de f4 | z2 B2 c2 d2 | B2 AG A2 F2 | %30
w: s'el- le ne|m'ay- * me, el-|le'a grant tort|car d'aul- tre'ay-|mer, _ _ _ _|car d'aul- tre'ay-|mer je _ ne pour-|
 GA Bc d4 | B4 z2 B2 | c2 d2 B4 | z4 z2 B2 | c2 d2 Bc de |"^b" f2 f2 e2 c2 |"^-natural" d4 B4- | %37
w: chas- * * * *|se, car|aul- tre'ay- mer|car|d'aul- tre'ay- mer _ _ _|_ je ne pour-|chas- se.|
 B8 |] %38
w: _|
V:3
 z4 z2 G2 | B2 B2 A2 B2 | c2 d4 c2 | d2 A2 B2 c2 | d2 c2 f3 e | d2 c2 B2 AG | A4 G2 G2 | %7
w: Las,|si je n'ay aul-|tre _ se-|cours d'u- ne da-|me que j'ay- *||me fort, je|
 c2 c2 B2 G2 | B2 B2 A2 B2 | c2 d4 c2 | d2 A2 d2 c2 | A2 B2 GA BG | c4 A4 | G4 z4 | z4 z2 B2 | %15
w: souf- fri- ray, je|souf- fri- ray main-|tes dou- *|leurs, si d'el- le|n'ay aul- tre _ _ _|_ con-|fort,|de|
 c2 c2 d3 d |"^b" e2 c2 B4 | z4 F4 | G2 A2 B2 F2 | A2 B2 c3 B/c/ | dc c4 B2 | c2 c2 e3 d | c4 B4 | %23
w: la ser- vir fais|mon ef- fort|pour|ac- que- rir sa|bon- ne gra- * *||ce, sa bon- ne|gra- ce,|
 z2 G2 B2 B2 | B3 A G2 G2 | F4 z2 D2 | G2 G2 F4 | z2 B2 c2 d2 | B4 z4 | z2 B2 c2 d2 | B2 AG A4 | %31
w: s'el- le ne|m'ay- m'el- le'a grant|tort car|d'aul- tre'ay- mer,|car d'aul- tre'ay-|mer|je ne pour-|chas- * * *|
 G2 D2 G2 G2 | F4 z2 B2 | c2 d2 B4 | z4 z2 B2 | c2 d2 B2 AG | A4 G4- | G8 |] %38
w: se, car d'aul- tre'ay-|mer, car|d'aul- tre'ay- mer|je|ne pour- chas- * *|* se.|_|
V:4
 z4 G,4 | G,2 G,2 D,2 G,2 | F,3 G, A,4 | z2 D,2 G,2 F,2 | B,,2 F,2 F,2 F,2 |"^b" B,,2 F,2 G,2 E,2 | %6
w: Las,|si je n'ay aul-|tre se- cours|d'u- ne da-|me, d'u- ne da-|me que j'ay- *|
 D,4 G,,2 C,2 | C,2 C,2 G,,2 G,2 | G,2 G,2 D,2 G,2 | F,3 G, A,4 | z2 D,2 B,,2 C,2 | %11
w: me fort, je|suf- fri- ray, je|souf- fri- ray main-|tes dou- leurs|si d'el- le|
"^b" D,2 B,,2 E,4 | C,4 D,4 | G,,2 G,2 G,2 A,2 | B,2 A,G, F,2 G,2 |"^b" E,2 F,2 B,,4 | z4 B,,4 | %17
w: n'ay aul- tre-|con- *|fort, de la ser-|vir fais _ mon _|_ ef- fort,|de|
 C,2 C,2 D,3 D, |"^b" E,2 C,2 B,,2 B,,2 | F,2 G,2 F,2 F,2 | B,2 A,2 G,4 | F,2 A,2 G,2 E,2 | %22
w: la ser- vir fais|mon ef- fort pour|ac- que- rir sa|bon- ne gra-|ce, sa bon- ne|
 F,4 B,,4 | z2 _E,2 E,2 E,2 |"^b" B,,2 B,,2 E,2 C,2 | D,4 G,,4- | G,,4 z2 D,2 | G,2 G,2 F,2 F,2 | %28
w: gra- ce,|s'el- le ne|m'ay- m'el- le'a grant-|* tort,|_ car|aul- tre'ay- mer je|
 G,A,B,G, A,2 D,2 | G,4 F,2 D,2 |"^b" E,4 D,4 | G,,8 | z2 D,2 G,2 G,2 | F,2 F,2 G,A,B,G, | %34
w: ne _ _ _ _ pour-|chas- se, pour-|chas- *|se,|car d'aul- tre'ay-|mer je ne _ _ _|
 A,2 D,2 G,4 |"^b" F,2 D,2 E,4 | D,4 G,,4- | G,,8 |] %38
w: _ pour- chas-|se, pour- chas-|* se.|_|

